Yaru++/mimetypes/48/application-xmind.svg

<svg height="48" viewBox="0 0 12.699375 12.699376" width="48" xmlns="http://www.w3.org/2000/svg" xmlns:xlink="http://www.w3.org/1999/xlink"><linearGradient id="a" gradientUnits="userSpaceOnUse" x1="6.35007208" x2="6.35007208" y1=".13228552" y2="12.30252024"><stop offset="0" stop-color="#fff"/><stop offset=".125" stop-color="#fff" stop-opacity=".098039"/><stop offset=".92500001" stop-color="#fff" stop-opacity=".098039"/><stop offset="1" stop-color="#fff" stop-opacity=".498039"/></linearGradient><linearGradient id="b" gradientTransform="matrix(0 -.02997086 -.02997 0 15.739288 13.625372)" gradientUnits="userSpaceOnUse" x1="512" x2="-.000001" y1="397.99393" y2="125.99394"><stop offset="0" stop-color="#da1636"/><stop offset="1" stop-color="#f22c42"/></linearGradient><path d="m4.1621983.39685682c-.5881821 0-1.0513178.0135407-1.4323996.0775109-.3810844.0639689-.6929229.18395549-.9213476.41184075-.2284221.22788553-.3489841.53958353-.4123567.92082883-.0633725.3812456-.0757438.8453924-.07286 1.4349839v3.239953 3.2415032c-.00286.5886866.00955 1.0525976.07286 1.4334326.063373.381246.1839346.692944.4123567.920829.2284247.227885.5402632.347873.9213476.411841.3810845.06397.8442175.07751 1.4323996.07751h4.3757445c.5881822 0 1.0510748-.01352 1.4313678-.07751.3802934-.064.6911794-.18439.9187604-.412357.227583-.227967.347434-.539443.411325-.920313.06389-.380866.07751-.844072.07751-1.4334326v-3.2415032-3.2415031c0-.5893606-.01362-1.0525645-.07751-1.4334338-.06389-.3808691-.183742-.6923443-.411325-.92031212-.227581-.22796755-.538467-.3483608-.9187604-.41235745-.380293-.0639969-.8431856-.0775109-1.4313678-.0775109z" opacity=".1"/><path d="m4.1621983.1322865c-.5880975 0-1.0515929.0141042-1.4323996.0780276-.3812749.0640011-.692825.18385574-.9213476.41184075-.2285623.22802655-.3489577.53890095-.4123567.92031215-.063314.3808966-.075744.8449217-.07286 1.4344672v3.2404697 3.2415032c-.00286.5889349.00958 1.0528019.07286 1.4334339.063399.381411.1837917.692284.4123567.920312.2285252.227983.54007.347839.9213476.411841.3808067.06392.8443021.07803 1.4323996.07803h4.3757445c.5880922 0 1.0508338-.01408 1.4308488-.07803.3804424-.06402.6914794-.183652.9192794-.411841.227724-.228107.347405-.539258.411325-.920312.06386-.38069.07751-.844227.07751-1.4334339v-3.2415032-3.2415031c0-.5892071-.01365-1.0527452-.07751-1.4334338-.06392-.3810543-.183601-.69220358-.411325-.92031214-.2278-.22818688-.538837-.34781897-.9192794-.41184075-.380015-.0639501-.8427566-.0780276-1.4308488-.0780276z" fill="url(#b)"/><g fill="#fff"><path d="m9.1178095 3.8228541-1.9316835.3346172c.0278355 1.2639445-1.2528675 2.1423891-2.4545564-.2388409l-2.2725877.3349162c.3537728 1.2875891 1.6237051 1.4462178 2.4707217 2.123534-.4235109.6351148-2.3474108.2526091-2.2959307 2.2348731l1.9316835-.3349156c-.0278354-1.263945 2.2013521-2.3285554 3.4027395.0529757l2.2725881-.334918c-.3543744-1.2908809-1.703918-1.4135936-2.5509346-2.0950995.4196165-.9227422 1.8077692-.0927833 1.4276611-2.0771419" stroke-width=".2993"/><path d="m1.5878047 6.2174039v3.2415032c-.011456 2.3393379.2397775 2.5790439 2.5743936 2.5790439h4.3757445c2.3346162 0 2.5743942-.23968 2.5743942-2.5790439v-3.2415032z" opacity=".08"/><path d="m6.3500706.39685682v11.64109418h2.1878722c2.3346162 0 2.5743942-.23968 2.5743942-2.5790439v-3.2415032-3.2415031c0-2.33936522-.239778-2.57904398-2.5743942-2.57904398z" opacity=".08"/></g><path d="m4.1621983.26457166c-.5859201 0-1.0443173.0144588-1.4106969.0759605-.3663796.061501-.6470094.17311844-.8495194.37515254-.2025101.2020341-.3142566.4821376-.3751528.8484852-.060896.3663479-.074183.8250345-.07131 1.4122476v3.2409864 3.2415032c-.00286.5869049.010424 1.0455179.07131 1.4117309.060896.366347.17264.64645.3751527.848484.2025128.202034.4831372.313651.8495195.375153.3663796.0615.8247768.07596 1.4106969.07596h4.3757445c.5859174 0 1.0436078-.01445 1.4091468-.07596.3655384-.06151.6457214-.173077.8474534-.375153.201732-.202073.313211-.482325.374634-.848484.06142-.36616.07545-.82463.07545-1.4117309v-3.2415032-3.2415031c0-.5871009-.01402-1.0455706-.07545-1.4117309-.06142-.3661603-.172902-.64641089-.374634-.8484852-.201732-.20207432-.481915-.31363859-.8474534-.37515252-.365539-.0615137-.8232294-.0759605-1.4091468-.0759605z" fill="none" opacity=".4" stroke="url(#a)" stroke-width=".26457"/></svg>

<?xml version="1.0" encoding="UTF-8" standalone="no"?>
<svg
   xmlns:dc="http://purl.org/dc/elements/1.1/"
   xmlns:cc="http://creativecommons.org/ns#"
   xmlns:rdf="http://www.w3.org/1999/02/22-rdf-syntax-ns#"
   xmlns:svg="http://www.w3.org/2000/svg"
   xmlns="http://www.w3.org/2000/svg"
   xmlns:xlink="http://www.w3.org/1999/xlink"
   xmlns:sodipodi="http://sodipodi.sourceforge.net/DTD/sodipodi-0.dtd"
   xmlns:inkscape="http://www.inkscape.org/namespaces/inkscape"
   width="48"
   height="48"
   version="1.1"
   viewBox="0 0 12.699375 12.699376"
   id="svg39"
   sodipodi:docname="application-xmind.svg"
   inkscape:version="0.92.4 (5da689c313, 2019-01-14)">
  <metadata
     id="metadata43">
    <rdf:RDF>
      <cc:Work
         rdf:about="">
        <dc:format>image/svg+xml</dc:format>
        <dc:type
           rdf:resource="http://purl.org/dc/dcmitype/StillImage" />
        <dc:title></dc:title>
      </cc:Work>
    </rdf:RDF>
  </metadata>
  <sodipodi:namedview
     pagecolor="#ffffff"
     bordercolor="#666666"
     borderopacity="1"
     objecttolerance="10"
     gridtolerance="10"
     guidetolerance="10"
     inkscape:pageopacity="0"
     inkscape:pageshadow="2"
     inkscape:window-width="1920"
     inkscape:window-height="1016"
     id="namedview41"
     showgrid="false"
     inkscape:zoom="17.851067"
     inkscape:cx="24.00144"
     inkscape:cy="23.999997"
     inkscape:window-x="0"
     inkscape:window-y="27"
     inkscape:window-maximized="1"
     inkscape:current-layer="svg39" />
  <defs
     id="defs17">
    <linearGradient
       id="linearGradient4226"
       x1="529.65503"
       x2="-35.310001"
       y1="401.58401"
       y2="119.093"
       gradientTransform="matrix(0,-0.11988932,-0.11988589,0,67.016455,292.5483)"
       gradientUnits="userSpaceOnUse">
      <stop
         style="stop-color:#da1636"
         offset="0"
         id="stop2" />
      <stop
         style="stop-color:#f22c42"
         offset="1"
         id="stop4" />
    </linearGradient>
    <linearGradient
       id="linearGradient4358"
       x1="88"
       x2="488"
       y1="88"
       y2="488"
       gradientUnits="userSpaceOnUse">
      <stop
         style="stop-color:#000000;stop-opacity:.58823532"
         offset="0"
         id="stop7" />
      <stop
         style="stop-color:#000000;stop-opacity:0"
         offset=".88"
         id="stop9" />
      <stop
         style="stop-color:#000000"
         offset="1"
         id="stop11" />
    </linearGradient>
    <filter
       id="filter4346"
       width="1.026"
       height="1.022"
       x="-0.0099999998"
       y="-0.0099999998"
       style="color-interpolation-filters:sRGB">
      <feGaussianBlur
         stdDeviation="2.12"
         id="feGaussianBlur14" />
    </filter>
    <clipPath
       clipPathUnits="userSpaceOnUse"
       id="clipPath994">
      <path
         style="color:#000000;display:inline;overflow:visible;visibility:visible;fill:#cdcdcd;fill-opacity:1;fill-rule:nonzero;stroke:none;stroke-width:2;stroke-miterlimit:4;stroke-dasharray:none;stroke-opacity:1;marker:none;enable-background:accumulate"
         d="m 335.73108,62 c -8.82418,0 -9.77365,0.90635 -9.7304,9.74838 V 84 96.25162 c -0.0433,8.84203 0.90622,9.74838 9.7304,9.74838 h 16.53919 c 8.82418,0 9.7304,-0.90625 9.7304,-9.74838 V 84 71.74838 C 362.00067,62.90625 361.09445,62 352.27027,62 Z"
         id="path996"
         inkscape:connector-curvature="0"
         sodipodi:nodetypes="scccssscsss" />
    </clipPath>
    <clipPath
       clipPathUnits="userSpaceOnUse"
       id="clipPath994-7">
      <path
         style="color:#000000;display:inline;overflow:visible;visibility:visible;fill:#cdcdcd;fill-opacity:1;fill-rule:nonzero;stroke:none;stroke-width:2;stroke-miterlimit:4;stroke-dasharray:none;stroke-opacity:1;marker:none;enable-background:accumulate"
         d="m 335.73108,62 c -8.82418,0 -9.77365,0.90635 -9.7304,9.74838 V 84 96.25162 c -0.0433,8.84203 0.90622,9.74838 9.7304,9.74838 h 16.53919 c 8.82418,0 9.7304,-0.90625 9.7304,-9.74838 V 84 71.74838 C 362.00067,62.90625 361.09445,62 352.27027,62 Z"
         id="path996-0"
         inkscape:connector-curvature="0"
         sodipodi:nodetypes="scccssscsss" />
    </clipPath>
    <clipPath
       clipPathUnits="userSpaceOnUse"
       id="clipPath994-9">
      <path
         style="color:#000000;display:inline;overflow:visible;visibility:visible;fill:#cdcdcd;fill-opacity:1;fill-rule:nonzero;stroke:none;stroke-width:2;stroke-miterlimit:4;stroke-dasharray:none;stroke-opacity:1;marker:none;enable-background:accumulate"
         d="m 335.73108,62 c -8.82418,0 -9.77365,0.90635 -9.7304,9.74838 V 84 96.25162 c -0.0433,8.84203 0.90622,9.74838 9.7304,9.74838 h 16.53919 c 8.82418,0 9.7304,-0.90625 9.7304,-9.74838 V 84 71.74838 C 362.00067,62.90625 361.09445,62 352.27027,62 Z"
         id="path996-2"
         inkscape:connector-curvature="0"
         sodipodi:nodetypes="scccssscsss" />
    </clipPath>
    <clipPath
       clipPathUnits="userSpaceOnUse"
       id="clipPath994-0">
      <path
         style="color:#000000;display:inline;overflow:visible;visibility:visible;fill:#cdcdcd;fill-opacity:1;fill-rule:nonzero;stroke:none;stroke-width:2;stroke-miterlimit:4;stroke-dasharray:none;stroke-opacity:1;marker:none;enable-background:accumulate"
         d="m 335.73108,62 c -8.82418,0 -9.77365,0.90635 -9.7304,9.74838 V 84 96.25162 c -0.0433,8.84203 0.90622,9.74838 9.7304,9.74838 h 16.53919 c 8.82418,0 9.7304,-0.90625 9.7304,-9.74838 V 84 71.74838 C 362.00067,62.90625 361.09445,62 352.27027,62 Z"
         id="path996-23"
         inkscape:connector-curvature="0"
         sodipodi:nodetypes="scccssscsss" />
    </clipPath>
    <clipPath
       clipPathUnits="userSpaceOnUse"
       id="clipPath994-75">
      <path
         style="color:#000000;display:inline;overflow:visible;visibility:visible;fill:#cdcdcd;fill-opacity:1;fill-rule:nonzero;stroke:none;stroke-width:2;stroke-miterlimit:4;stroke-dasharray:none;stroke-opacity:1;marker:none;enable-background:accumulate"
         d="m 335.73108,62 c -8.82418,0 -9.77365,0.90635 -9.7304,9.74838 V 84 96.25162 c -0.0433,8.84203 0.90622,9.74838 9.7304,9.74838 h 16.53919 c 8.82418,0 9.7304,-0.90625 9.7304,-9.74838 V 84 71.74838 C 362.00067,62.90625 361.09445,62 352.27027,62 Z"
         id="path996-9"
         inkscape:connector-curvature="0"
         sodipodi:nodetypes="scccssscsss" />
    </clipPath>
    <clipPath
       clipPathUnits="userSpaceOnUse"
       id="clipPath994-2">
      <path
         style="color:#000000;display:inline;overflow:visible;visibility:visible;fill:#cdcdcd;fill-opacity:1;fill-rule:nonzero;stroke:none;stroke-width:2;stroke-miterlimit:4;stroke-dasharray:none;stroke-opacity:1;marker:none;enable-background:accumulate"
         d="m 335.73108,62 c -8.82418,0 -9.77365,0.90635 -9.7304,9.74838 V 84 96.25162 c -0.0433,8.84203 0.90622,9.74838 9.7304,9.74838 h 16.53919 c 8.82418,0 9.7304,-0.90625 9.7304,-9.74838 V 84 71.74838 C 362.00067,62.90625 361.09445,62 352.27027,62 Z"
         id="path996-28"
         inkscape:connector-curvature="0"
         sodipodi:nodetypes="scccssscsss" />
    </clipPath>
    <clipPath
       clipPathUnits="userSpaceOnUse"
       id="clipPath994-97">
      <path
         style="color:#000000;display:inline;overflow:visible;visibility:visible;fill:#cdcdcd;fill-opacity:1;fill-rule:nonzero;stroke:none;stroke-width:2;stroke-miterlimit:4;stroke-dasharray:none;stroke-opacity:1;marker:none;enable-background:accumulate"
         d="m 335.73108,62 c -8.82418,0 -9.77365,0.90635 -9.7304,9.74838 V 84 96.25162 c -0.0433,8.84203 0.90622,9.74838 9.7304,9.74838 h 16.53919 c 8.82418,0 9.7304,-0.90625 9.7304,-9.74838 V 84 71.74838 C 362.00067,62.90625 361.09445,62 352.27027,62 Z"
         id="path996-3"
         inkscape:connector-curvature="0"
         sodipodi:nodetypes="scccssscsss" />
    </clipPath>
    <clipPath
       clipPathUnits="userSpaceOnUse"
       id="clipPath994-6">
      <path
         style="color:#000000;display:inline;overflow:visible;visibility:visible;fill:#cdcdcd;fill-opacity:1;fill-rule:nonzero;stroke:none;stroke-width:2;stroke-miterlimit:4;stroke-dasharray:none;stroke-opacity:1;marker:none;enable-background:accumulate"
         d="m 335.73108,62 c -8.82418,0 -9.77365,0.90635 -9.7304,9.74838 V 84 96.25162 c -0.0433,8.84203 0.90622,9.74838 9.7304,9.74838 h 16.53919 c 8.82418,0 9.7304,-0.90625 9.7304,-9.74838 V 84 71.74838 C 362.00067,62.90625 361.09445,62 352.27027,62 Z"
         id="path996-1"
         inkscape:connector-curvature="0"
         sodipodi:nodetypes="scccssscsss" />
    </clipPath>
    <clipPath
       clipPathUnits="userSpaceOnUse"
       id="clipPath994-29">
      <path
         style="color:#000000;display:inline;overflow:visible;visibility:visible;fill:#cdcdcd;fill-opacity:1;fill-rule:nonzero;stroke:none;stroke-width:2;stroke-miterlimit:4;stroke-dasharray:none;stroke-opacity:1;marker:none;enable-background:accumulate"
         d="m 335.73108,62 c -8.82418,0 -9.77365,0.90635 -9.7304,9.74838 V 84 96.25162 c -0.0433,8.84203 0.90622,9.74838 9.7304,9.74838 h 16.53919 c 8.82418,0 9.7304,-0.90625 9.7304,-9.74838 V 84 71.74838 C 362.00067,62.90625 361.09445,62 352.27027,62 Z"
         id="path996-31"
         inkscape:connector-curvature="0"
         sodipodi:nodetypes="scccssscsss" />
    </clipPath>
    <linearGradient
       inkscape:collect="always"
       xlink:href="#linearGradient4226-0"
       id="linearGradient951"
       gradientUnits="userSpaceOnUse"
       gradientTransform="matrix(0,-0.02997086,-0.02997,0,15.739288,13.625372)"
       x1="512"
       y1="397.99393"
       x2="-1.0000001e-06"
       y2="125.99394" />
    <filter
       id="filter4346-9"
       width="1.026"
       height="1.022"
       x="-0.0099999998"
       y="-0.0099999998"
       style="color-interpolation-filters:sRGB">
      <feGaussianBlur
         stdDeviation="2.12"
         id="feGaussianBlur14-4" />
    </filter>
    <linearGradient
       id="linearGradient4358-7"
       x1="88"
       x2="488"
       y1="88"
       y2="488"
       gradientUnits="userSpaceOnUse">
      <stop
         style="stop-color:#000000;stop-opacity:.58823532"
         offset="0"
         id="stop7-8" />
      <stop
         style="stop-color:#000000;stop-opacity:0"
         offset=".88"
         id="stop9-4" />
      <stop
         style="stop-color:#000000"
         offset="1"
         id="stop11-5" />
    </linearGradient>
    <linearGradient
       id="linearGradient4226-0"
       x1="529.65503"
       x2="-35.310001"
       y1="401.58401"
       y2="119.093"
       gradientTransform="matrix(0,-0.11988932,-0.11988589,0,67.016455,292.81288)"
       gradientUnits="userSpaceOnUse">
      <stop
         style="stop-color:#2a6dcf"
         offset="0"
         id="stop2-3" />
      <stop
         style="stop-color:#3979d7"
         offset="1"
         id="stop4-6" />
    </linearGradient>
    <linearGradient
       gradientTransform="matrix(0.26457032,0,0,0.26457032,-84.662118,-16.006504)"
       inkscape:collect="always"
       xlink:href="#linearGradient927"
       id="linearGradient923"
       x1="344"
       y1="61"
       x2="344"
       y2="107"
       gradientUnits="userSpaceOnUse" />
    <linearGradient
       inkscape:collect="always"
       id="linearGradient927">
      <stop
         style="stop-color:#ffffff;stop-opacity:1;"
         offset="0"
         id="stop923" />
      <stop
         id="stop933"
         offset="0.125"
         style="stop-color:#ffffff;stop-opacity:0.09803922" />
      <stop
         id="stop931"
         offset="0.92500001"
         style="stop-color:#ffffff;stop-opacity:0.09803922" />
      <stop
         style="stop-color:#ffffff;stop-opacity:0.49803922"
         offset="1"
         id="stop925" />
    </linearGradient>
    <linearGradient
       inkscape:collect="always"
       xlink:href="#linearGradient4246"
       id="linearGradient951-1"
       gradientUnits="userSpaceOnUse"
       gradientTransform="matrix(0,-0.02997086,-0.02997,0,15.739288,13.625372)"
       x1="512"
       y1="397.99393"
       x2="-1.0000001e-06"
       y2="125.99394" />
    <linearGradient
       inkscape:collect="always"
       id="linearGradient4246">
      <stop
         style="stop-color:#da1636;stop-opacity:1"
         offset="0"
         id="stop4248" />
      <stop
         style="stop-color:#f22c42;stop-opacity:1"
         offset="1"
         id="stop4250" />
    </linearGradient>
  </defs>
  <path
     style="color:#000000;font-style:normal;font-variant:normal;font-weight:normal;font-stretch:normal;font-size:medium;line-height:normal;font-family:sans-serif;font-variant-ligatures:normal;font-variant-position:normal;font-variant-caps:normal;font-variant-numeric:normal;font-variant-alternates:normal;font-feature-settings:normal;text-indent:0;text-align:start;text-decoration:none;text-decoration-line:none;text-decoration-style:solid;text-decoration-color:#000000;letter-spacing:normal;word-spacing:normal;text-transform:none;writing-mode:lr-tb;direction:ltr;text-orientation:mixed;dominant-baseline:auto;baseline-shift:baseline;text-anchor:start;white-space:normal;shape-padding:0;clip-rule:nonzero;display:inline;overflow:visible;visibility:visible;opacity:0.1;isolation:auto;mix-blend-mode:normal;color-interpolation:sRGB;color-interpolation-filters:linearRGB;solid-color:#000000;solid-opacity:1;vector-effect:none;fill:#000000;fill-opacity:1;fill-rule:nonzero;stroke:none;stroke-width:0.52914065;stroke-linecap:butt;stroke-linejoin:miter;stroke-miterlimit:4;stroke-dasharray:none;stroke-dashoffset:0;stroke-opacity:1;marker:none;color-rendering:auto;image-rendering:auto;shape-rendering:auto;text-rendering:auto;enable-background:accumulate"
     d="m 4.1621983,0.39685682 c -0.5881821,0 -1.0513178,0.0135407 -1.4323996,0.0775109 C 2.3487143,0.53833662 2.0368758,0.65832321 1.8084511,0.88620847 1.580029,1.114094 1.459467,1.425792 1.3960944,1.8070373 1.3327219,2.1882829 1.3203506,2.6524297 1.3232344,3.2420212 v 3.239953 3.2415032 c -0.00286,0.5886866 0.00955,1.0525976 0.07286,1.4334326 0.063373,0.381246 0.1839346,0.692944 0.4123567,0.920829 0.2284247,0.227885 0.5402632,0.347873 0.9213476,0.411841 0.3810845,0.06397 0.8442175,0.07751 1.4323996,0.07751 h 4.3757445 c 0.5881822,0 1.0510748,-0.01352 1.4313678,-0.07751 0.3802934,-0.064 0.6911794,-0.18439 0.9187604,-0.412357 0.227583,-0.227967 0.347434,-0.539443 0.411325,-0.920313 0.06389,-0.380866 0.07751,-0.844072 0.07751,-1.4334326 V 6.4819742 3.2404711 c 0,-0.5893606 -0.01362,-1.0525645 -0.07751,-1.4334338 C 11.235506,1.4261682 11.115654,1.114693 10.888071,0.88672518 10.66049,0.65875763 10.349604,0.53836438 9.9693106,0.47436773 9.5890176,0.41037083 9.126125,0.39685683 8.5379428,0.39685683 Z"
     id="path1020"
     inkscape:connector-curvature="0"
     sodipodi:nodetypes="sccsccccccsscccscsccsss" />
  <path
     inkscape:connector-curvature="0"
     style="color:#000000;display:inline;overflow:visible;visibility:visible;fill:url(#linearGradient951-1);fill-opacity:1;fill-rule:nonzero;stroke:none;stroke-width:0.26457033;marker:none;enable-background:accumulate"
     d="m 4.1621983,0.1322865 c -0.5880975,0 -1.0515929,0.0141042 -1.4323996,0.0780276 C 2.3485238,0.2743152 2.0369737,0.39416984 1.8084511,0.62215485 1.5798888,0.8501814 1.4594934,1.1610558 1.3960944,1.542467 1.3327804,1.9233636 1.3203504,2.3873887 1.3232344,2.9769342 v 3.2404697 3.2415032 c -0.00286,0.5889349 0.00958,1.0528019 0.07286,1.4334339 0.063399,0.381411 0.1837917,0.692284 0.4123567,0.920312 0.2285252,0.227983 0.54007,0.347839 0.9213476,0.411841 0.3808067,0.06392 0.8443021,0.07803 1.4323996,0.07803 h 4.3757445 c 0.5880922,0 1.0508338,-0.01408 1.4308488,-0.07803 0.3804424,-0.06402 0.6914794,-0.183652 0.9192794,-0.411841 0.227724,-0.228107 0.347405,-0.539258 0.411325,-0.920312 0.06386,-0.38069 0.07751,-0.844227 0.07751,-1.4334339 V 6.2174039 2.9759008 c 0,-0.5892071 -0.01365,-1.0527452 -0.07751,-1.4334338 C 11.235476,1.1614127 11.115795,0.85026342 10.888071,0.62215486 10.660271,0.39396798 10.349234,0.27433589 9.9687916,0.21031411 9.5887766,0.14636401 9.126035,0.13228651 8.5379428,0.13228651 Z"
     id="path949" />
  <path
     inkscape:connector-curvature="0"
     d="M 9.1178095,3.8228541 7.186126,4.1574713 C 7.2139615,5.4214158 5.9332585,6.2998604 4.7315696,3.9186304 L 2.4589819,4.2535466 C 2.8127547,5.5411357 4.082687,5.6997644 4.9297036,6.3770806 4.5061927,7.0121954 2.5822928,6.6296897 2.6337729,8.6119537 L 4.5654564,8.2770381 C 4.537621,7.0130931 6.7668085,5.9484827 7.9681959,8.3300138 L 10.240784,7.9950958 C 9.8864096,6.7042149 8.536866,6.5815022 7.6898494,5.8999963 8.1094659,4.9772541 9.4976186,5.807213 9.1175105,3.8228544"
     style="color:#000000;display:inline;opacity:1;isolation:auto;mix-blend-mode:normal;solid-color:#000000;fill:#ffffff;stroke-width:0.29930001;color-rendering:auto;image-rendering:auto;shape-rendering:auto;enable-background:new"
     id="path19-3" />
  <path
     style="color:#000000;display:inline;overflow:visible;visibility:visible;opacity:0.07999998;fill:#ffffff;fill-opacity:1;fill-rule:nonzero;stroke:none;stroke-width:0.26457033;marker:none;enable-background:accumulate"
     d="m 1.5878047,6.2174039 v 3.2415032 c -0.011456,2.3393379 0.2397775,2.5790439 2.5743936,2.5790439 h 4.3757445 c 2.3346162,0 2.5743942,-0.23968 2.5743942,-2.5790439 V 6.2174039 Z"
     id="path1006"
     inkscape:connector-curvature="0" />
  <path
     style="color:#000000;display:inline;overflow:visible;visibility:visible;opacity:0.07999998;fill:#ffffff;fill-opacity:1;fill-rule:nonzero;stroke:none;stroke-width:0.26457033;marker:none;enable-background:accumulate"
     d="M 6.3500706,0.39685682 V 12.037951 h 2.1878722 c 2.3346162,0 2.5743942,-0.23968 2.5743942,-2.5790439 V 6.2174039 2.9759008 c 0,-2.33936522 -0.239778,-2.57904398 -2.5743942,-2.57904398 z"
     id="path1013"
     inkscape:connector-curvature="0" />
  <path
     id="path901"
     d="m 4.1621983,0.26457166 c -0.5859201,0 -1.0443173,0.0144588 -1.4106969,0.0759605 C 2.3851218,0.40203316 2.104492,0.5136506 1.901982,0.7156847 1.6994719,0.9177188 1.5877254,1.1978223 1.5268292,1.5641699 1.4659332,1.9305178 1.4526462,2.3892044 1.4555192,2.9764175 v 3.2409864 3.2415032 c -0.00286,0.5869049 0.010424,1.0455179 0.07131,1.4117309 0.060896,0.366347 0.17264,0.64645 0.3751527,0.848484 0.2025128,0.202034 0.4831372,0.313651 0.8495195,0.375153 0.3663796,0.0615 0.8247768,0.07596 1.4106969,0.07596 h 4.3757445 c 0.5859174,0 1.0436078,-0.01445 1.4091468,-0.07596 0.3655384,-0.06151 0.6457214,-0.173077 0.8474534,-0.375153 0.201732,-0.202073 0.313211,-0.482325 0.374634,-0.848484 0.06142,-0.36616 0.07545,-0.82463 0.07545,-1.4117309 V 6.2174039 2.9759008 c 0,-0.5871009 -0.01402,-1.0455706 -0.07545,-1.4117309 C 11.107757,1.1980096 10.996275,0.91775901 10.794543,0.7156847 10.592811,0.51361038 10.312628,0.40204611 9.9470896,0.34053218 9.5815506,0.27901848 9.1238602,0.26457168 8.5379428,0.26457168 Z"
     style="color:#000000;display:inline;overflow:visible;visibility:visible;opacity:0.4;fill:none;fill-opacity:1;fill-rule:nonzero;stroke:url(#linearGradient923);stroke-width:0.26457033;stroke-opacity:1;marker:none;enable-background:accumulate"
     inkscape:connector-curvature="0" />
</svg>
